X:1
T:Combined Effort
M:6/8
L:1/8
K:Dm
GAG FDF | GAG B3| AGF FDC | DFF AGF|!
GAG FDF | GAG B2d | cBA fcA| G3G2:|]!
^f|gag gdc | BGG Gde | fgf fcB | AFF F2^f|!
gag gdc | BGG Gdc | BAG dcA | G3 G2^f|!
gag gdc | BGG G2A | B2B dcB | AFF F2^f|!
gag bag | fdd dcB | cBA fcA | G3 G2|]!

